workspaces/osm/styles/symbols/telephone.svg

<svg xmlns:dc="http://purl.org/dc/elements/1.1/" xmlns:cc="http://creativecommons.org/ns#" xmlns:rdf="http://www.w3.org/1999/02/22-rdf-syntax-ns#" xmlns:svg="http://www.w3.org/2000/svg" xmlns="http://www.w3.org/2000/svg" version="1.1" width="14" height="14" viewBox="0 0 14 14" id="svg2">
  <metadata id="metadata8">
    <rdf:RDF>
      <cc:Work rdf:about="">
        <dc:format>image/svg+xml</dc:format>
        <dc:type rdf:resource="http://purl.org/dc/dcmitype/StillImage"/>
        <dc:title/>
      </cc:Work>
    </rdf:RDF>
  </metadata>
  <defs id="defs6"/>
  <rect width="14" height="14" x="0" y="0" id="canvas" style="fill:none;stroke:none;visibility:hidden"/>
  <path d="M 2,8 C 1.0118212,8.9881788 0.56004859,10.573569 1.5487288,11.552966 L 2,12 5,9 5,7.5 7.5,5 9,5 12,2 11.489407,1.512712 C 10.513874,0.58170546 8.9807634,1.0192366 8,2 z m 0.5451482,4.537558 0.3387857,0.352887 c 0,0 0.8501688,0.07591 1.2889221,-0.356167 L 5.5665554,11.161784 C 5.9484277,10.759801 5.8738707,9.8572254 5.8738707,9.8572254 L 5.5350852,9.504338 z M 9.5530473,5.5203307 9.8918329,5.8732169 c 0,0 0.8697361,0.1575408 1.2643511,-0.2310704 l 1.393699,-1.372494 C 12.944768,3.8807753 12.87203,2.8612795 12.87203,2.8612795 L 12.533244,2.5083933 z" id="telephone" />
</svg>

<svg width="14" height="14" version="1.1" viewBox="0 0 14 14" xmlns="http://www.w3.org/2000/svg"><rect id="a" width="14" height="14" fill="none" visibility="hidden"/><path id="b" d="m2 8c-0.69149 0.69814-1.1853 1.7298-0.93682 2.7236 0.12108 0.54364 0.56395 0.90077 0.93682 1.2764l3-3v-1.5l2.5-2.5h1.5l3-3c-0.40003-0.36852-0.76884-0.8249-1.3294-0.94184-1.014-0.23579-2.0493 0.29351-2.7406 1.0118l-5.93 5.93zm0.54515 4.5376c0.11293 0.11763 0.22586 0.23526 0.33879 0.35289 0.50765 0.03192 1.0738-0.07275 1.4159-0.4812 0.43288-0.42967 0.87278-0.8527 1.3012-1.2866 0.26716-0.35911 0.28871-0.83442 0.27284-1.2654-0.11293-0.11763-0.22586-0.23526-0.33879-0.35289-0.99665 1.0111-1.9933 2.0221-2.9899 3.0332zm7.0079-7.0172c0.11293 0.11763 0.22586 0.23526 0.33879 0.35289 0.47345 0.069934 1.047 0.058152 1.3772-0.34221 0.44796-0.44882 0.91223-0.88268 1.3495-1.3413 0.25388-0.38913 0.26578-0.87843 0.25345-1.3285-0.11293-0.11763-0.22586-0.23526-0.33879-0.35289-0.9934 1.004-1.9868 2.008-2.9802 3.0119z"/></svg>
